X:1
T:Sally in our Alley
M:3/4
L:1/8
K:C
g/2-f/2 ef| d3e/2-d/2 cd| B3c/2-B/2 AG|F-ED-C C c-| c3g/2-f/2 ef| d3e/2-d/2 cd|\
 B3c/2-B/2 AG|F-ED-C C c-| c3||



